X: 022
T: New Fal lal la
%R: march, reel
Z: 2018 John Chambers <jc:trillian.mit.edu>
B: Bland and Weller "Country Dances for the Year 1798" p.2 #2
M: 2/4
L: 1/8
K: C
% - - - - - - - - - - - - - - - - - - - - - - - - -
|:\
cefd | gec2 | GcBc | e2d2 |\
cefd | gec2 | Gcde | d2c2 :|\
|:\
efgG | AcG2 | cBAd | B2G2 |
efgG |AcGc | Acfe | e2dc/d/ |]\
eecc | AAG2 | cc/d/ f/e/d/c/ | d2gc/d/ |\
eecc | AAG2 | ccgg/f/ | e2c2 |]
% - - - - - - - - - - - - - - - - - - - - - - - - -
%%begintext align
%% Set & hands across .| back again .|. lead down
%% the middle up again :|. and Allmand :|:
%%endtext
% - - - - - - - - - - - - - - - - - - - - - - - - -
